;FLAVOR:Marlin
;TIME:34641
;Filament used: 32.8282m
;Layer height: 0.2
;MINX:121.972
;MINY:43.971
;MINZ:0.2
;MAXX:228.028
;MAXY:306.027
;MAXZ:35
;Generated with Cura_SteamEngine 4.10.0
M140 S60
M105
M190 S60
M104 S200
M105
M109 S200
M82 ;absolute extrusion mode
M201 X500.00 Y500.00 Z100.00 E5000.00 ;Setup machine max acceleration
M203 X500.00 Y500.00 Z10.00 E50.00 ;Setup machine max feedrate
M204 P500.00 R1000.00 T500.00 ;Setup Print/Retract/Travel acceleration
M205 X8.00 Y8.00 Z0.40 E5.00 ;Setup Jerk
M220 S100 ;Reset Feedrate
M221 S100 ;Reset Flowrate

G28 ;Home
M420 S1 Z2 ;Enable ABL using saved Mesh and Fade Height

G92 E0 ;Reset Extruder
G1 Z2.0 F3000 ;Move Z Axis up
G1 X10.1 Y20 Z0.28 F5000.0 ;Move to start position
G1 X10.1 Y200.0 Z0.28 F1500.0 E15 ;Draw the first line
G1 X10.4 Y200.0 Z0.28 F5000.0 ;Move to side a little
G1 X10.4 Y20 Z0.28 F1500.0 E30 ;Draw the second line
G92 E0 ;Reset Extruder
G1 Z2.0 F3000 ;Move Z Axis up

G92 E0
G92 E0
G1 F1500 E-6.5
;LAYER_COUNT:175
;LAYER:0
M107
G0 F6000 X125.435 Y51.278 Z0.2
;TYPE:SKIRT
G1 F1500 E0
G1 F1200 X125.788 Y50.409 E0.0312
G1 X126.214 Y49.573 E0.0624
G1 X126.71 Y48.777 E0.0936
G1 X127.271 Y48.026 E0.12478
G1 X127.895 Y47.325 E0.15599
G1 X128.575 Y46.68 E0.18716
G1 X129.309 Y46.095 E0.21838
G1 X130.089 Y45.575 E0.24956
G1 X130.911 Y45.124 E0.28075
G1 X131.769 Y44.744 E0.31196
G1 X132.655 Y44.438 E0.34313
G1 X133.565 Y44.209 E0.37434
G1 X134.49 Y44.058 E0.40552
G1 X135.31 Y43.992 E0.43288
G1 X135.756 Y43.978 E0.44772
G1 X136.401 Y43.971 E0.46917
G1 X213.507 Y43.971 E3.03373
G1 X214.363 Y43.982 E3.0622
G1 X215.299 Y44.036 E3.09339
G1 X216.227 Y44.168 E3.12456
G1 X217.141 Y44.38 E3.15577
G1 X218.033 Y44.669 E3.18695
G1 X218.898 Y45.032 E3.21816
G1 X219.728 Y45.468 E3.24934
G1 X220.519 Y45.973 E3.28055
G1 X221.263 Y46.544 E3.31175
G1 X221.956 Y47.176 E3.34294
G1 X222.593 Y47.864 E3.37413
G1 X223.168 Y48.605 E3.40532
G1 X223.679 Y49.391 E3.4365
G1 X224.121 Y50.219 E3.46772
G1 X224.49 Y51.081 E3.49891
G1 X224.724 Y51.763 E3.52289
G1 X224.865 Y52.251 E3.53978
G1 X225.019 Y52.838 E3.55997
G1 X227.569 Y63.036 E3.9096
G1 X227.693 Y63.56 E3.92751
G1 X227.895 Y64.661 E3.96474
G1 X227.929 Y64.92 E3.97343
G1 X228.022 Y66.229 E4.01707
G1 X228.028 Y66.798 E4.036
G1 X228.027 Y252.989 E10.22874
G1 X228.017 Y253.671 E10.25142
G1 X227.963 Y254.608 E10.28264
G1 X227.83 Y255.536 E10.31382
G1 X227.611 Y256.475 E10.34589
G1 X227.361 Y257.368 E10.37673
G1 X227.304 Y257.564 E10.38352
G1 X215.319 Y297.514 E11.77077
G1 X215.063 Y298.326 E11.79909
G1 X214.743 Y299.208 E11.83029
G1 X214.348 Y300.059 E11.8615
G1 X213.883 Y300.873 E11.89268
G1 X213.35 Y301.645 E11.92388
G1 X212.753 Y302.368 E11.95507
G1 X212.096 Y303.038 E11.98628
G1 X211.385 Y303.649 E12.01746
G1 X210.625 Y304.198 E12.04864
G1 X209.82 Y304.68 E12.07985
G1 X208.977 Y305.092 E12.11105
G1 X208.103 Y305.43 E12.14222
G1 X207.202 Y305.693 E12.17344
G1 X206.283 Y305.878 E12.20462
G1 X205.351 Y305.984 E12.23582
G1 X204.773 Y306.009 E12.25506
G1 X203.686 Y306.027 E12.29122
G1 X145.968 Y306.026 E14.21093
G1 X145.274 Y306.016 E14.23401
G1 X144.337 Y305.962 E14.26523
G1 X143.409 Y305.829 E14.29641
G1 X142.495 Y305.618 E14.32761
G1 X141.603 Y305.329 E14.35879
G1 X140.738 Y304.965 E14.39001
G1 X139.908 Y304.529 E14.42119
G1 X139.118 Y304.024 E14.45238
G1 X138.373 Y303.454 E14.48358
G1 X137.68 Y302.822 E14.51477
G1 X137.044 Y302.133 E14.54596
G1 X136.468 Y301.393 E14.57715
G1 X135.958 Y300.606 E14.60834
G1 X135.516 Y299.778 E14.63956
G1 X135.146 Y298.916 E14.67076
G1 X134.954 Y298.367 E14.6901
G1 X134.696 Y297.56 E14.71828
G1 X122.632 Y257.35 E16.11457
G1 X122.41 Y256.576 E16.14135
G1 X122.192 Y255.664 E16.17253
G1 X122.052 Y254.737 E16.20372
G1 X121.991 Y253.758 E16.23634
G1 X121.972 Y252.613 E16.27443
G1 X121.973 Y66.763 E22.45583
G1 X121.984 Y66.057 E22.47931
G1 X122.039 Y65.12 E22.51053
G1 X122.218 Y63.966 E22.54937
G1 X122.268 Y63.728 E22.55746
G1 X122.37 Y63.281 E22.57271
G1 X124.952 Y52.955 E22.92673
G1 X125.157 Y52.173 E22.95361
G1 X125.435 Y51.278 E22.98478
G0 F6000 X125.817 Y51.396
G1 F1200 X126.166 Y50.544 E23.01541
G1 X126.587 Y49.726 E23.04601
G1 X127.078 Y48.947 E23.07663
G1 X127.635 Y48.213 E23.10728
G1 X128.253 Y47.531 E23.13789
G1 X128.928 Y46.905 E23.16851
G1 X129.654 Y46.339 E23.19913
G1 X130.427 Y45.839 E23.22975
G1 X131.241 Y45.408 E23.26038
G1 X132.089 Y45.049 E23.29101
G1 X132.964 Y44.765 E23.32161
G1 X133.861 Y44.558 E23.35223
G1 X134.773 Y44.43 E23.38286
G1 X135.328 Y44.391 E23.40136
G1 X135.761 Y44.378 E23.41577
G1 X136.401 Y44.371 E23.43706
G1 X213.507 Y44.371 E26.00161
G1 X214.357 Y44.382 E26.02989
G1 X215.276 Y44.435 E26.0605
G1 X216.187 Y44.568 E26.09112
G1 X217.083 Y44.779 E26.12174
G1 X217.957 Y45.067 E26.15235
G1 X218.804 Y45.43 E26.183
G1 X219.615 Y45.865 E26.21361
G1 X220.385 Y46.369 E26.24421
G1 X221.109 Y46.938 E26.27484
G1 X221.781 Y47.568 E26.30548
G1 X222.396 Y48.253 E26.3361
G1 X222.949 Y48.989 E26.36672
G1 X223.436 Y49.77 E26.39733
G1 X223.853 Y50.591 E26.42796
G1 X224.341 Y51.88 E26.4738
G1 X224.478 Y52.354 E26.49021
G1 X224.631 Y52.935 E26.51019
G1 X227.18 Y63.128 E26.85965
G1 X227.304 Y63.652 E26.87756
G1 X227.499 Y64.713 E26.91344
G1 X227.533 Y64.972 E26.92213
G1 X227.622 Y66.233 E26.96418
G1 X227.628 Y66.798 E26.98297
G1 X227.627 Y252.983 E33.17551
G1 X227.617 Y253.665 E33.19819
G1 X227.563 Y254.585 E33.22884
G1 X227.43 Y255.495 E33.25943
G1 X227.226 Y256.368 E33.28925
G1 X226.976 Y257.261 E33.32009
G1 X214.936 Y297.399 E34.71386
G1 X214.682 Y298.206 E34.742
G1 X214.367 Y299.071 E34.77261
G1 X213.977 Y299.905 E34.80324
G1 X213.517 Y300.703 E34.83387
G1 X212.99 Y301.457 E34.86447
G1 X212.399 Y302.163 E34.89509
G1 X211.749 Y302.815 E34.92571
G1 X211.044 Y303.408 E34.95635
G1 X210.291 Y303.938 E34.98698
G1 X209.495 Y304.4 E35.01759
G1 X208.662 Y304.791 E35.0482
G1 X207.798 Y305.109 E35.07882
G1 X206.909 Y305.351 E35.10946
G1 X206.003 Y305.514 E35.14008
G1 X204.766 Y305.609 E35.18134
G1 X203.686 Y305.627 E35.21727
G1 X145.973 Y305.626 E37.13681
G1 X145.279 Y305.616 E37.1599
G1 X144.36 Y305.563 E37.19051
G1 X143.449 Y305.43 E37.22113
G1 X142.553 Y305.219 E37.25175
G1 X141.679 Y304.93 E37.28237
G1 X140.833 Y304.567 E37.31299
G1 X140.021 Y304.132 E37.34363
G1 X139.251 Y303.628 E37.37423
G1 X138.527 Y303.059 E37.40486
G1 X137.855 Y302.43 E37.43548
G1 X137.24 Y301.744 E37.46612
G1 X136.688 Y301.008 E37.49672
G1 X136.201 Y300.227 E37.52733
G1 X135.783 Y299.406 E37.55797
G1 X135.335 Y298.245 E37.59936
G1 X135.077 Y297.438 E37.62754
G1 X123.015 Y257.235 E39.02359
G1 X122.795 Y256.467 E39.05016
G1 X122.581 Y255.571 E39.0808
G1 X122.446 Y254.66 E39.11143
G1 X122.391 Y253.751 E39.14172
G1 X122.372 Y252.613 E39.17957
G1 X122.373 Y66.769 E45.36077
G1 X122.384 Y66.063 E45.38425
G1 X122.439 Y65.144 E45.41487
G1 X122.609 Y64.049 E45.45173
G1 X122.713 Y63.568 E45.4681
G1 X122.796 Y63.221 E45.47996
G1 X125.374 Y52.92 E45.83314
G1 X125.544 Y52.276 E45.8553
G1 X125.817 Y51.396 E45.88594
G0 F6000 X126.2 Y51.515
G1 F1200 X126.544 Y50.681 E45.91595
G1 X126.961 Y49.879 E45.94601
G1 X127.446 Y49.118 E45.97603
G1 X127.998 Y48.403 E46.00607
G1 X128.61 Y47.739 E46.0361
G1 X129.279 Y47.132 E46.06615
G1 X129.999 Y46.587 E46.09618
G1 X130.764 Y46.107 E46.12622
G1 X131.569 Y45.697 E46.15627
G1 X132.406 Y45.36 E46.18628
G1 X133.271 Y45.098 E46.21634
G1 X134.155 Y44.913 E46.24638
G1 X135.345 Y44.791 E46.28617
G1 X135.766 Y44.778 E46.30017
G1 X136.401 Y44.771 E46.3213
G1 X213.507 Y44.771 E48.88585
G1 X214.351 Y44.782 E48.91393
G1 X215.253 Y44.835 E48.94398
G1 X216.146 Y44.967 E48.974
G1 X217.024 Y45.178 E49.00404
G1 X217.88 Y45.466 E49.03408
G1 X218.707 Y45.828 E49.0641
G1 X219.499 Y46.263 E49.09416
G1 X220.25 Y46.765 E49.1242
G1 X220.953 Y47.332 E49.15424
G1 X221.603 Y47.959 E49.18428
G1 X222.195 Y48.641 E49.21431
G1 X222.725 Y49.372 E49.24435
G1 X223.187 Y50.148 E49.27438
G1 X223.58 Y50.961 E49.30442
G1 X223.959 Y51.997 E49.34111
G1 X223.985 Y52.082 E49.34406
G1 X224.091 Y52.456 E49.35699
G1 X224.243 Y53.033 E49.37684
G1 X226.791 Y63.22 E49.7261
G1 X226.915 Y63.744 E49.74401
G1 X227.102 Y64.765 E49.77853
G1 X227.136 Y65.024 E49.78722
G1 X227.222 Y66.238 E49.8277
G1 X227.228 Y66.798 E49.84633
G1 X227.227 Y252.978 E56.0387
G1 X227.217 Y253.66 E56.06138
G1 X227.164 Y254.561 E56.0914
G1 X227.031 Y255.454 E56.12143
G1 X226.84 Y256.26 E56.14898
G1 X226.538 Y257.334 E56.18609
G1 X214.509 Y297.427 E57.57831
G1 X214.301 Y298.085 E57.60126
G1 X213.991 Y298.934 E57.63133
G1 X213.607 Y299.751 E57.66135
G1 X213.152 Y300.531 E57.69139
G1 X212.63 Y301.268 E57.72142
G1 X212.045 Y301.956 E57.75146
G1 X211.401 Y302.59 E57.78152
G1 X210.704 Y303.164 E57.81155
G1 X209.959 Y303.674 E57.84158
G1 X209.172 Y304.116 E57.8716
G1 X208.348 Y304.487 E57.90166
G1 X207.495 Y304.784 E57.9317
G1 X206.619 Y305.004 E57.96174
G1 X205.728 Y305.146 E57.99175
G1 X204.759 Y305.209 E58.02404
G1 X203.686 Y305.227 E58.05974
G1 X145.979 Y305.226 E59.97908
G1 X145.285 Y305.216 E60.00217
G1 X144.383 Y305.163 E60.03222
G1 X143.49 Y305.03 E60.06225
G1 X142.612 Y304.819 E60.09228
G1 X141.756 Y304.532 E60.12231
G1 X140.929 Y304.169 E60.15235
G1 X140.137 Y303.735 E60.18239
G1 X139.387 Y303.232 E60.21242
G1 X138.684 Y302.665 E60.24246
G1 X138.034 Y302.039 E60.27248
G1 X137.441 Y301.357 E60.30253
G1 X136.912 Y300.625 E60.33257
G1 X136.449 Y299.849 E60.36263
G1 X136.057 Y299.036 E60.39265
G1 X135.716 Y298.123 E60.42506
G1 X135.458 Y297.316 E60.45324
G1 X135.404 Y297.141 E60.45933
G1 X123.398 Y257.12 E61.84904
G1 X123.18 Y256.357 E61.87544
G1 X122.971 Y255.478 E61.90549
G1 X122.84 Y254.585 E61.93551
G1 X122.791 Y253.744 E61.96353
G1 X122.772 Y252.613 E62.00115
G1 X122.773 Y66.775 E68.18215
G1 X122.784 Y66.069 E68.20563
G1 X122.838 Y65.168 E68.23565
G1 X123.001 Y64.131 E68.27057
G1 X123.103 Y63.659 E68.28663
G1 X123.184 Y63.319 E68.29825
G1 X125.761 Y53.022 E68.65129
G1 X125.931 Y52.378 E68.67345
G1 X126.2 Y51.515 E68.70351
G1 F1500 E62.20351
;MESH:LowerCover.STL
G0 F6000 X132.351 Y65.971
G0 X133.782 Y66.328
G0 X133.743 Y253.422
G0 X145.999 Y294.249
G0 X204.134 Y294.427
;TYPE:WALL-INNER
G1 F1500 E68.70351
G1 F1200 X145.866 Y294.427 E70.64151
G1 X133.572 Y253.447 E72.06453
G1 X133.572 Y66.301 E78.28903
G1 X136.254 Y55.571 E78.65689
G1 X213.746 Y55.571 E81.23428
G1 X216.428 Y66.298 E81.60205
G1 X216.428 Y253.447 E87.82665
G1 X204.134 Y294.427 E89.24966
G0 F6000 X204.432 Y294.827
;TYPE:WALL-OUTER
G1 F1200 X145.568 Y294.827 E91.20749
G1 X133.172 Y253.505 E92.64237
G1 X133.172 Y66.252 E98.87043
G1 X135.942 Y55.171 E99.25033
G1 X214.058 Y55.171 E101.84848
G1 X216.828 Y66.249 E102.22828
G1 X216.828 Y253.505 E108.45644
G1 X204.432 Y294.827 E109.89132
G0 F6000 X203.844 Y294.037
;TYPE:SKIN
G1 F1200 X146.156 Y294.037 E111.81003
G1 X133.962 Y253.389 E113.22151
G1 X133.962 Y66.347 E119.44256
G1 X136.558 Y55.961 E119.79862
G1 X213.442 Y55.961 E122.35579
G1 X216.038 Y66.345 E122.7118
G1 X216.038 Y253.389 E128.93291
G1 X203.844 Y294.037 E130.34439
G1 F1500 E123.84439
G0 F6000 X204.111 Y294.117
G0 X146.798 Y294.317
G0 X146.798 Y293.876
G1 F1500 E130.34439
G1 F1200 X146.05 Y293.128 E130.37957
G0 F6000 X145.808 Y292.32
G1 F1200 X147.363 Y293.876 E130.45274
G0 F6000 X147.929 Y293.876
G1 F1200 X145.565 Y291.512 E130.56393
G0 F6000 X145.323 Y290.704
G1 F1200 X148.495 Y293.876 E130.71313
G0 F6000 X149.06 Y293.876
G1 F1200 X145.08 Y289.896 E130.90034
G0 F6000 X144.838 Y289.087
G1 F1200 X149.626 Y293.876 E131.12558
G0 F6000 X150.192 Y293.876
G1 F1200 X144.595 Y288.279 E131.38884
G0 F6000 X144.353 Y287.472
G1 F1200 X150.757 Y293.876 E131.69007
G0 F6000 X151.323 Y293.876
G1 F1200 X144.111 Y286.663 E132.02932
G0 F6000 X143.868 Y285.855
G1 F1200 X151.889 Y293.876 E132.4066
G0 F6000 X152.455 Y293.876
G1 F1200 X143.626 Y285.047 E132.82189
G0 F6000 X143.383 Y284.239
G1 F1200 X153.02 Y293.876 E133.27519
G0 F6000 X153.586 Y293.876
G1 F1200 X143.141 Y283.431 E133.76649
G0 F6000 X142.899 Y282.623
G1 F1200 X154.152 Y293.876 E134.2958
G0 F6000 X154.717 Y293.876
G1 F1200 X142.656 Y281.815 E134.86311
G0 F6000 X142.414 Y281.007
G1 F1200 X155.283 Y293.876 E135.46843
G0 F6000 X155.849 Y293.876
G1 F1200 X142.171 Y280.198 E136.1118
G0 F6000 X141.929 Y279.39
G1 F1200 X156.414 Y293.876 E136.79315
G0 F6000 X156.98 Y293.876
G1 F1200 X141.686 Y278.582 E137.51253
G0 F6000 X141.444 Y277.774
G1 F1200 X157.546 Y293.876 E138.26992
G0 F6000 X158.111 Y293.876
G1 F1200 X141.202 Y276.966 E139.06529
G0 F6000 X140.959 Y276.158
G1 F1200 X158.677 Y293.876 E139.89869
G0 F6000 X159.243 Y293.876
G1 F1200 X140.717 Y275.35 E140.7701
G0 F6000 X140.474 Y274.541
G1 F1200 X159.808 Y293.876 E141.67954
G0 F6000 X160.374 Y293.876
G1 F1200 X140.232 Y273.733 E142.62698
G0 F6000 X139.99 Y272.926
G1 F1200 X160.94 Y293.876 E143.6124
G0 F6000 X161.506 Y293.876
G1 F1200 X139.747 Y272.118 E144.63585
G0 F6000 X139.505 Y271.309
G1 F1200 X162.071 Y293.876 E145.69731
G0 F6000 X162.637 Y293.876
G1 F1200 X139.262 Y270.501 E146.7968
G0 F6000 X139.02 Y269.693
G1 F1200 X163.203 Y293.876 E147.9343
G0 F6000 X163.768 Y293.876
G1 F1200 X138.777 Y268.885 E149.1098
G0 F6000 X138.535 Y268.077
G1 F1200 X164.334 Y293.876 E150.3233
G0 F6000 X164.9 Y293.876
G1 F1200 X138.293 Y267.269 E151.57481
G0 F6000 X138.05 Y266.461
G1 F1200 X165.465 Y293.876 E152.86433
G0 F6000 X166.031 Y293.876
G1 F1200 X137.808 Y265.652 E154.19188
G0 F6000 X137.565 Y264.844
G1 F1200 X166.597 Y293.876 E155.55745
G0 F6000 X167.162 Y293.876
G1 F1200 X137.322 Y264.036 E156.96104
G0 F6000 X137.081 Y263.228
G1 F1200 X167.728 Y293.876 E158.4026
G0 F6000 X168.294 Y293.876
G1 F1200 X136.838 Y262.42 E159.88219
G0 F6000 X136.596 Y261.612
G1 F1200 X168.859 Y293.876 E161.39977
G0 F6000 X169.425 Y293.876
G1 F1200 X136.353 Y260.804 E162.95538
G0 F6000 X136.11 Y259.996
G1 F1200 X169.991 Y293.876 E164.54901
G0 F6000 X170.556 Y293.876
G1 F1200 X135.868 Y259.187 E166.18065
G0 F6000 X135.626 Y258.38
G1 F1200 X171.122 Y293.876 E167.85028
G0 F6000 X171.688 Y293.876
G1 F1200 X135.384 Y257.572 E169.5579
G0 F6000 X135.141 Y256.763
G1 F1200 X172.254 Y293.876 E171.30359
G0 F6000 X172.819 Y293.876
G1 F1200 X134.899 Y255.955 E173.08725
G0 F6000 X134.656 Y255.147
G1 F1200 X173.385 Y293.876 E174.90894
G0 F6000 X173.951 Y293.876
G1 F1200 X134.413 Y254.339 E176.76867
G0 F6000 X134.172 Y253.531
G1 F1200 X174.516 Y293.876 E178.66635
G0 F6000 X175.082 Y293.876
G1 F1200 X134.121 Y252.915 E180.59303
G0 F6000 X134.121 Y252.349
G1 F1200 X175.648 Y293.876 E182.54633
G0 F6000 X176.213 Y293.876
G1 F1200 X134.121 Y251.783 E184.52623
G0 F6000 X134.121 Y251.218
G1 F1200 X176.779 Y293.876 E186.53273
G0 F6000 X177.345 Y293.876
G1 F1200 X134.121 Y250.652 E188.56586
G0 F6000 X134.121 Y250.086
G1 F1200 X177.91 Y293.876 E190.62558
G0 F6000 X178.476 Y293.876
G1 F1200 X134.121 Y249.521 E192.71191
G0 F6000 X134.121 Y248.955
G1 F1200 X179.042 Y293.876 E194.82485
G0 F6000 X179.607 Y293.876
G1 F1200 X134.121 Y248.389 E196.9644
G0 F6000 X134.121 Y247.823
G1 F1200 X180.173 Y293.876 E199.13057
G0 F6000 X180.739 Y293.876
G1 F1200 X134.121 Y247.258 E201.32333
G0 F6000 X134.121 Y246.692
G1 F1200 X181.305 Y293.876 E203.54272
G0 F6000 X181.87 Y293.876
G1 F1200 X134.121 Y246.126 E205.78871
G0 F6000 X134.121 Y245.561
G1 F1200 X182.436 Y293.876 E208.0613
G0 F6000 X183.002 Y293.876
G1 F1200 X134.121 Y244.995 E210.36052
G0 F6000 X134.121 Y244.429
G1 F1200 X183.567 Y293.876 E212.68633
G0 F6000 X184.133 Y293.876
G1 F1200 X134.121 Y243.864 E215.03874
G0 F6000 X134.121 Y243.298
G1 F1200 X184.699 Y293.876 E217.41777
G0 F6000 X185.264 Y293.876
G1 F1200 X134.121 Y242.732 E219.82341
G0 F6000 X134.121 Y242.167
G1 F1200 X185.83 Y293.876 E222.25564
